X: 164
T: Miss Christian Riddell's Strathspey
R: strathspey
B: William Shepherd "2nd Collection" 1800 p.16 #4
F: http://imslp.org/wiki/File:PMLP73094-Shepherd_Collections_HMT.pdf
N: Bars 1-4 & 5-8 are identical; converted to a repeated 4-bar phrase.
C: William Shepherd (17??-1812)
Z: 2012 John Chambers <jc:trillian.mit.edu>
M: C
L: 1/8
K: A
f | e>Ac>A B/B/B Tf2 | e>ATc>A e>ATc>A | d>fc>a B/B/B Tf2 | e<ae>d TcAA :|
f | e>ac>a B/B/B Tf2 | e>ac>a A>ec>A | d>fec B/B/B Tf2 | e<ae>d c>A A> |
f | e>ac>a B/B/B Tf2 | e>ac>a A>ec>a | d>fc>a B/B/B Tf2 | (3agf (3efd cAA |]
